X:1
T:tf2's "MEDIC!" but it's synthwave for some reason
T:tf2's "MEDIC!" but it's synthwave for some reason
%%score 1 2 3 { 4 | 5 }
L:1/8
Q:1/4=90
M:4/4
K:C
V:1 treble nm="New Age Synthesizer" snm="Synth."
V:2 perc nm="Drumset" snm="D. Set"
K:none
I:percmap F F 36 normal
I:percmap c c 38 normal
V:3 bass nm="Metallic Synthesizer" snm="Synth."
V:4 treble nm="Brass Synthesizer" snm="Synth."
V:5 bass 
V:1
"^\n" ^f3 =f fe^d=d | f ^f2 =f fe^d=d | f3 ^d d=dd^d | ^c4 ^d4 | d6 z2 | z6 z2 | z8 | z8 | z8 | %9
 z8 | z8 | z8 | z2 z2!mp! cAeA | c8 | z8 | z8 | z8 | z8 | z8 | z8 | z8 | z8 | z8 | z8 | z8 | z8 |] %26
V:2
 z8 | z8 | z8 | z8 | z4 z z cc/c/ |!mp! F/ z/ z/ z/ F/ z/ z/ z/ F/ z/ z/ z/ F/ z/ z/ z/ | %6
!mp! F/ z/ z/ z/ F/ z/ z/ z/ F/ z/ z/ z/ F/ z/ z/ z/ | %7
!mp! F/ z/ z/ z/ F/ z/ z/ z/ F/ z/ z/ z/ F/ z/ z/ z/ | %8
!mp! F/ z/ z/ z/ F/ z/ z/ z/ F/ z/ z/ z/ F/ z/ z/ z/ | %9
!mp! F/ z/ z/ z/ F/ z/ z/ z/ F/ z/ z/ z/ F/ z/ z/ z/ | %10
!mp! F/ z/ z/ z/ F/ z/ z/ z/ F/ z/ z/ z/ F/ z/ z/ z/ | %11
!mp! F/ z/ z/ z/ F/ z/ z/ z/ F/ z/ z/ z/ F/ z/ z/ z/ | %12
!mp! F/ z/ z/ z/ F/ z/ z/ z/ F/ z/ z/ z/ F/ z/ z/ z/ | %13
!mp! F/ z/ z/ z/ F/ z/ z/ z/ F/ z/ z/ z/ F/ z/ z/ z/ | %14
!mp! F/ z/ z/ z/ F/ z/ z/ z/ F/ z/ z/ z/ F/ z/ z/ z/ | %15
!mp! F/ z/ z/ z/ F/ z/ z/ z/ F/ z/ z/ z/ F/ z/ z/ z/ | %16
!mp! F/ z/ z/ z/ F/ z/ z/ z/ F/ z/ z/ z/ F/ z/ z/ z/ | %17
!mp! F/ z/ z/ z/ F/ z/ z/ z/ F/ z/ z/ z/ F/ z/ z/ z/ | %18
!mp! F/ z/ z/ z/ F/ z/ z/ z/ F/ z/ z/ z/ F/ z/ z/ z/ | %19
!mp! F/ z/ z/ z/ F/ z/ z/ z/ F/ z/ z/ z/ F/ z/ z/ z/ | %20
!mp! F/ z/ z/ z/ F/ z/ z/ z/ F/ z/ z/ z/ F/ z/ z/ z/ | %21
!mp! F/ z/ z/ z/ F/ z/ z/ z/ F/ z/ z/ z/ F/ z/ z/ z/ | %22
!mp! F/ z/ z/ z/ F/ z/ z/ z/ F/ z/ z/ z/ F/ z/ z/ z/ | %23
!mp! F/ z/ z/ z/ F/ z/ z/ z/ F/ z/ z/ z/ F/ z/ z/ z/ | %24
!mp! F/ z/ z/ z/ F/ z/ z/ z/ F/ z/ z/ z/ F/ z/ z/ z/ | z8 |] %26
V:3
 F,8 | F,8 | E,8 | ^C,4 ^D,4 | D,6 z2 | z8 | z8 | z8 | z8 | z8 | z8 | z8 | z8 | %13
 z/ F,/F,/F,/ z/ F,/F,/F,/ z/ F,/F,/F,/ z/ F,/F,/F,/ | %14
 z/ F,/F,/F,/ z/ F,/F,/F,/ z/ F,/F,/F,/ z/ F,/F,/F,/ | %15
 z/ F,/F,/F,/ z/ F,/F,/F,/ z/ F,/F,/F,/ z/ F,/F,/F,/ | %16
 z/ F,/F,/F,/ z/ F,/F,/F,/ z/ F,/F,/F,/ z/ F,/F,/F,/ | %17
 z/ F,/F,/F,/ z/ F,/F,/F,/ z/ F,/F,/F,/ z/ F,/F,/F,/ | %18
 z/ F,/F,/F,/ z/ F,/F,/F,/ z/ F,/F,/F,/ z/ F,/F,/F,/ | %19
 z/ F,/F,/F,/ z/ F,/F,/F,/ z/ F,/F,/F,/ z/ F,/F,/F,/ | %20
 z/ F,/F,/F,/ z/ F,/F,/F,/ z/ F,/F,/F,/ z/ F,/F,/F,/ | %21
 z/ F,/F,/F,/ z/ F,/F,/F,/ z/ F,/F,/F,/ z/ F,/F,/F,/ | %22
 z/ F,/F,/F,/ z/ F,/F,/F,/ z/ F,/F,/F,/ z/ F,/F,/F,/ | %23
 z/ F,/F,/F,/ z/ F,/F,/F,/ z/ F,/F,/F,/ z/ F,/F,/F,/ | %24
 z/ F,/F,/F,/ z/ F,/F,/F,/ z/ F,/F,/F,/ z/ F,/F,/F,/ | z8 |] %26
V:4
 z2 z2 z4 | z8 | z8 | z8 | z8 | z8 | z8 | z8 | z8 | z8 | z8 | z8 | z8 | z8 | z8 | z8 | z8 | z8 | %18
 z8 | z8 | z z z2 _D=D_E=E | F8- | F4 _D=D_E=E | F8- | F4 _D=D_E=E | F7 F |] %26
V:5
 z8 | z/ z/ z z2 z4 | z8 | z8 | z8 | D,D,F,F, D,D,F,C | z z z z _B,G,E,F, |!<(! D,8!<)! | %8
 D,2 z2 D,_E,=E,F, | _G,7 C- | C4 ^C^A,B,=C | F,8 | F,2 z2 F,E,_E,D, | C,7 C- | C8 | %15
 F,D,CF, F,D,F,C- | C4 F,E,_E,D, | C,7 C- | C4 ^C_B,=B,=C | F7 F- | F4 z4 | z8 | z8 | z8 | z8 | %25
 z8 |] %26

